media/NFDI4Chem_logo.svg

<?xml version="1.0" encoding="UTF-8"?>
<svg width="375" height="80" version="1.1" viewBox="0 0 396.93 84.679" xmlns="http://www.w3.org/2000/svg">
 <rect width="396.93" height="84.679" fill="#fff" stroke-dasharray="0, 9.15256" stroke-dashoffset="8.3205" stroke-width=".83205"/>
 <g transform="translate(12295 23422)" data-name="Gruppe 469">
  <path transform="translate(-12265 -23387)" d="m11 25.4 15.465-8.931v-17.856l-15.465-8.927-15.466 8.927v17.858z" fill="#009cbd" data-name="Pfad 2157"/>
  <g fill="#2b2e34">
   <path transform="translate(-12277 -23413)" d="m23.51 12.22v-17.182l-33.056 19.084v38.243l10.96 6.335a3.716 3.716 0 0 0-0.024 0.395 3.5 3.5 0 1 0 1.416-2.8l-9.571-5.534v-35.04l27.5-15.88v13.983z" data-name="Pfad 2158"/>
   <path transform="translate(-12244 -23406)" d="m23.508 7.268-10.957-6.334a3.783 3.783 0 0 0 0.024-0.4 3.478 3.478 0 0 0-1.022-2.466 3.486 3.486 0 0 0-4.931 0 3.493 3.493 0 0 0-1.022 2.468 3.493 3.493 0 0 0 1.023 2.464 3.478 3.478 0 0 0 2.465 1.023 3.5 3.5 0 0 0 2.071-0.686l9.571 5.53v35.04l-27.5 15.88v-13.978l-2.777 1.6v17.186l33.058-19.084z" data-name="Pfad 2159"/>
   <path transform="translate(-12190 -23391)" d="m16.823 19.68h-0.166l-3.957-7.98-11.556-19.691h-7.975v38.4h6.877v-27.672h0.163l3.961 7.975 11.552 19.7h7.978v-38.4h-6.877z" data-name="Pfad 2161"/>
   <path transform="translate(-12158 -23388)" d="m0 27.31h7.262v-16.01h15.184v-6.436h-15.184v-9.516h17.438v-6.437h-24.7z" data-name="Pfad 2162"/>
   <path transform="translate(-12118 -23397)" d="m18.488 3.423a13.834 13.834 0 0 0-5.225-3.6 18.367 18.367 0 0 0-6.794-1.213h-13.976v38.4h13.976a18.3 18.3 0 0 0 6.794-1.21 13.864 13.864 0 0 0 5.225-3.6 16.416 16.416 0 0 0 3.355-6 26.9 26.9 0 0 0 1.184-8.39 26.879 26.879 0 0 0-1.184-8.387 16.416 16.416 0 0 0-3.355-6m-3.161 17.411q0 4.95-2.4 7.345a8.725 8.725 0 0 1-6.462 2.393h-6.707v-25.525h6.711a8.725 8.725 0 0 1 6.462 2.393q2.395 2.389 2.4 7.345z" data-name="Pfad 2163"/>
   <path transform="translate(-12085 -23397)" d="m12.4 4.147v-5.831h-17.436v5.831h5.059v26.737h-5.059v5.831h17.436v-5.831h-5.112v-26.737z" data-name="Pfad 2165"/>
  </g>
  <path transform="translate(-12061 -23372)" d="m7 15.922v-4.3h-9.843v-4.104l8.723-13.983h5.707v14.371h2.826v3.719h-2.826v4.3zm-6-8.016h6v-9.4h-0.32z" fill="#009cbd" data-name="Pfad 2166"/>
  <g fill="#2b2e34">
   <path transform="translate(-12034 -23389)" d="m15.22 24.786a10.373 10.373 0 0 1-6.437 1.953 10.2 10.2 0 0 1-8.415-3.754q-3.028-3.75-3.026-10.873v-4.36q0-7.173 3.026-11.036a10.081 10.081 0 0 1 8.415-3.864 10.312 10.312 0 0 1 6.192 1.842 11.113 11.113 0 0 1 3.825 4.979l2.694-1.6a14.427 14.427 0 0 0-4.924-5.97 13.427 13.427 0 0 0-7.784-2.171q-7.152 0-11.057 5.115t-3.909 14.859q0 9.791 3.906 14.769t11.057 4.98a13.7 13.7 0 0 0 7.978-2.282 14.289 14.289 0 0 0 5.007-6.243l-2.7-1.6a11.634 11.634 0 0 1-3.851 5.253" data-name="Pfad 2167"/>
   <path transform="translate(-12001 -23398)" d="m8.255 8.452a8.9 8.9 0 0 0-5.391 1.458 8.729 8.729 0 0 0-2.916 3.657h-0.163v-17h-3.137v40.713h3.137v-19.807a5.679 5.679 0 0 1 0.63-2.722 5.628 5.628 0 0 1 1.708-1.951 7.793 7.793 0 0 1 2.448-1.157 10.56 10.56 0 0 1 2.86-0.384 6.771 6.771 0 0 1 5.369 2.09q1.839 2.093 1.842 6.382v17.549h3.134v-18.1q0-5.173-2.5-7.951a8.977 8.977 0 0 0-7.021-2.777" data-name="Pfad 2168"/>
   <path transform="translate(-11970 -23388)" d="m14.868 2.749a10.77 10.77 0 0 0-3.74-2.843 11.476 11.476 0 0 0-4.9-1.022 12.174 12.174 0 0 0-5.059 1.016 10.969 10.969 0 0 0-3.878 2.918 12.982 12.982 0 0 0-2.476 4.619 20.732 20.732 0 0 0-0.852 6.192 21 21 0 0 0 0.852 6.216 12.965 12.965 0 0 0 2.476 4.647 10.608 10.608 0 0 0 3.909 2.888 12.642 12.642 0 0 0 5.09 0.99 12.239 12.239 0 0 0 6.849-1.856 10.928 10.928 0 0 0 4.152-4.976l-2.31-1.531a8.543 8.543 0 0 1-8.531 5.669 9.548 9.548 0 0 1-3.85-0.745 8.221 8.221 0 0 1-2.889-2.064 9.081 9.081 0 0 1-1.811-3.161 12.369 12.369 0 0 1-0.634-4.045v-1.374h20.85v-1.487a17.864 17.864 0 0 0-0.852-5.658 13.13 13.13 0 0 0-2.393-4.391m-0.171 9.115h-17.437v-0.274a12.369 12.369 0 0 1 0.637-4.044 9.081 9.081 0 0 1 1.811-3.162 8.365 8.365 0 0 1 2.833-2.063 8.894 8.894 0 0 1 3.688-0.745 8.175 8.175 0 0 1 3.439 0.717 8.017 8.017 0 0 1 2.694 1.981 8.726 8.726 0 0 1 1.735 3.106 12.971 12.971 0 0 1 0.6 4.045z" data-name="Pfad 2169"/>
   <path transform="translate(-11933 -23388)" d="m25.549 1.975a8.7 8.7 0 0 0-6.932-2.775 9.25 9.25 0 0 0-5.917 1.729 8.573 8.573 0 0 0-2.94 4.207h-0.16a8.117 8.117 0 0 0-3.359-4.508 9.915 9.915 0 0 0-5.341-1.428 10.028 10.028 0 0 0-3.05 0.41 7.2 7.2 0 0 0-2.226 1.129 7.688 7.688 0 0 0-1.6 1.621 9.836 9.836 0 0 0-1.1 1.953h-0.163v-4.457h-3.137v28.166h3.137v-19.803a5.921 5.921 0 0 1 0.6-2.722 5.514 5.514 0 0 1 1.657-1.953 7.423 7.423 0 0 1 2.392-1.157 10.071 10.071 0 0 1 2.778-0.387q7.043 0 7.043 8.47v17.55h3.134v-19.746a5.772 5.772 0 0 1 2.23-4.7 6.835 6.835 0 0 1 2.337-1.184 9.981 9.981 0 0 1 2.805-0.39q7.1 0 7.1 8.47v17.55h3.133v-18.094q0-5.173-2.421-7.951" data-name="Pfad 2170"/>
  </g>
 </g>
</svg>

<svg xmlns="http://www.w3.org/2000/svg" width="381.525" height="76.434" viewBox="0 0 381.525 76.434">
  <g id="Gruppe_469" data-name="Gruppe 469" transform="translate(12287 23417.692)">
    <path id="Pfad_2157" data-name="Pfad 2157" d="M11,25.4l15.465-8.931V-1.387L11-10.314-4.466-1.387V16.471Z" transform="translate(-12264.942 -23386.99)" fill="#009cbd"/>
    <path id="Pfad_2158" data-name="Pfad 2158" d="M23.51,12.22V-4.962L-9.546,14.122l0,38.243L1.414,58.7a3.716,3.716,0,0,0-.024.395,3.5,3.5,0,1,0,1.416-2.8l-9.571-5.534,0-35.04,27.5-15.88V13.824Z" transform="translate(-12277.454 -23412.73)" fill="#2b2e34"/>
    <path id="Pfad_2159" data-name="Pfad 2159" d="M23.508,7.268,12.551.934a3.783,3.783,0,0,0,.024-.4,3.478,3.478,0,0,0-1.022-2.466,3.486,3.486,0,0,0-4.931,0A3.493,3.493,0,0,0,5.6.536,3.493,3.493,0,0,0,6.623,3,3.478,3.478,0,0,0,9.088,4.023a3.5,3.5,0,0,0,2.071-.686l9.571,5.53,0,35.04-27.5,15.88V45.809l-2.777,1.6V64.595L23.511,45.511Z" transform="translate(-12244.399 -23405.854)" fill="#2b2e34"/>
    <path id="Pfad_2161" data-name="Pfad 2161" d="M16.823,19.68h-.166L12.7,11.7,1.144-7.991H-6.831v38.4H.046V2.737H.209L4.17,10.712l11.552,19.7H23.7v-38.4H16.823Z" transform="translate(-12190.414 -23390.686)" fill="#2b2e34"/>
    <path id="Pfad_2162" data-name="Pfad 2162" d="M0,27.31H7.262V11.3H22.446V4.864H7.262V-4.652H24.7v-6.437H0Z" transform="translate(-12157.692 -23387.586)" fill="#2b2e34"/>
    <path id="Pfad_2163" data-name="Pfad 2163" d="M18.488,3.423a13.834,13.834,0,0,0-5.225-3.6A18.367,18.367,0,0,0,6.469-1.39H-7.507v38.4H6.469A18.3,18.3,0,0,0,13.263,35.8a13.864,13.864,0,0,0,5.225-3.6,16.416,16.416,0,0,0,3.355-6,26.9,26.9,0,0,0,1.184-8.39,26.879,26.879,0,0,0-1.184-8.387,16.416,16.416,0,0,0-3.355-6M15.327,20.834q0,4.95-2.4,7.345a8.725,8.725,0,0,1-6.462,2.393H-.242V5.047H6.469A8.725,8.725,0,0,1,12.931,7.44q2.395,2.389,2.4,7.345Z" transform="translate(-12118.445 -23397.285)" fill="#2b2e34"/>
    <path id="Pfad_2165" data-name="Pfad 2165" d="M12.4,4.147V-1.684H-5.036V4.147H.023V30.884H-5.036v5.831H12.4V30.884H7.288V4.147Z" transform="translate(-12084.606 -23396.992)" fill="#2b2e34"/>
    <path id="Pfad_2166" data-name="Pfad 2166" d="M7,15.922v-4.3H-2.843V7.518L5.88-6.465h5.707V7.906h2.826v3.719H11.587v4.3ZM1,7.906H7v-9.4H6.68Z" transform="translate(-12061.081 -23371.914)" fill="#009cbd"/>
    <path id="Pfad_2167" data-name="Pfad 2167" d="M15.22,24.786a10.373,10.373,0,0,1-6.437,1.953A10.2,10.2,0,0,1,.368,22.985q-3.028-3.75-3.026-10.873V7.752Q-2.658.579.368-3.284A10.081,10.081,0,0,1,8.783-7.148a10.312,10.312,0,0,1,6.192,1.842A11.113,11.113,0,0,1,18.8-.327l2.694-1.6a14.427,14.427,0,0,0-4.924-5.97,13.427,13.427,0,0,0-7.784-2.171q-7.152,0-11.057,5.115T-6.18,9.906q0,9.791,3.906,14.769t11.057,4.98a13.7,13.7,0,0,0,7.978-2.282,14.289,14.289,0,0,0,5.007-6.243l-2.7-1.6a11.634,11.634,0,0,1-3.851,5.253" transform="translate(-12034.075 -23389.27)" fill="#2b2e34"/>
    <path id="Pfad_2168" data-name="Pfad 2168" d="M8.255,8.452A8.9,8.9,0,0,0,2.864,9.91,8.729,8.729,0,0,0-.052,13.567H-.215v-17H-3.352V37.28H-.215V17.473a5.679,5.679,0,0,1,.63-2.722A5.628,5.628,0,0,1,2.123,12.8a7.793,7.793,0,0,1,2.448-1.157,10.56,10.56,0,0,1,2.86-.384A6.771,6.771,0,0,1,12.8,13.349q1.839,2.093,1.842,6.382V37.28h3.134V19.18q0-5.173-2.5-7.951A8.977,8.977,0,0,0,8.255,8.452" transform="translate(-12001.311 -23397.557)" fill="#2b2e34"/>
    <path id="Pfad_2169" data-name="Pfad 2169" d="M14.868,2.749a10.77,10.77,0,0,0-3.74-2.843,11.476,11.476,0,0,0-4.9-1.022A12.174,12.174,0,0,0,1.169-.1,10.969,10.969,0,0,0-2.709,2.818,12.982,12.982,0,0,0-5.185,7.437a20.732,20.732,0,0,0-.852,6.192,21,21,0,0,0,.852,6.216,12.965,12.965,0,0,0,2.476,4.647A10.608,10.608,0,0,0,1.2,27.38a12.642,12.642,0,0,0,5.09.99,12.239,12.239,0,0,0,6.849-1.856,10.928,10.928,0,0,0,4.152-4.976l-2.31-1.531A8.543,8.543,0,0,1,6.45,25.676,9.548,9.548,0,0,1,2.6,24.931,8.221,8.221,0,0,1-.289,22.867,9.081,9.081,0,0,1-2.1,19.706a12.369,12.369,0,0,1-.634-4.045V14.287h20.85V12.8a17.864,17.864,0,0,0-.852-5.658,13.13,13.13,0,0,0-2.393-4.391M14.7,11.866H-2.737v-.274A12.369,12.369,0,0,1-2.1,7.548,9.081,9.081,0,0,1-.289,4.386,8.365,8.365,0,0,1,2.544,2.323a8.894,8.894,0,0,1,3.688-.745,8.175,8.175,0,0,1,3.439.717,8.017,8.017,0,0,1,2.694,1.981A8.726,8.726,0,0,1,14.1,7.382a12.971,12.971,0,0,1,.6,4.045Z" transform="translate(-11969.909 -23387.988)" fill="#2b2e34"/>
    <path id="Pfad_2170" data-name="Pfad 2170" d="M25.549,1.975A8.7,8.7,0,0,0,18.617-.8,9.25,9.25,0,0,0,12.7.929a8.573,8.573,0,0,0-2.94,4.207H9.6A8.117,8.117,0,0,0,6.241.628,9.915,9.915,0,0,0,.9-.8,10.028,10.028,0,0,0-2.15-.39,7.2,7.2,0,0,0-4.376.739a7.688,7.688,0,0,0-1.6,1.621,9.836,9.836,0,0,0-1.1,1.953h-.163V-.144h-3.137V28.022h3.137V8.219a5.921,5.921,0,0,1,.6-2.722A5.514,5.514,0,0,1-4.982,3.544,7.423,7.423,0,0,1-2.59,2.387,10.071,10.071,0,0,1,.188,2q7.043,0,7.043,8.47v17.55h3.134V8.274a5.772,5.772,0,0,1,2.23-4.7,6.835,6.835,0,0,1,2.337-1.184A9.981,9.981,0,0,1,17.737,2q7.1,0,7.1,8.47v17.55H27.97V9.926q0-5.173-2.421-7.951" transform="translate(-11933.445 -23388.301)" fill="#2b2e34"/>
  </g>
</svg>
